svg/u1f495.svg

<svg viewBox="0 0 128 128" xmlns="http://www.w3.org/2000/svg">
  <g>
    <g>
      <path d="M105.23,4.62C94.79,7.26,93.65,18.91,93.65,18.91s-6.49-9.72-17.01-7.05 c-7.9,2-15.33,10.55-8.4,23.94c6.93,13.4,36.01,24.92,36.01,24.92S124.27,36.77,124,21.69C123.72,6.61,113.77,2.46,105.23,4.62z" fill="#EF5592"/>
      <g>
        <path d="M75.3,13.32c8.2-2.07,14.5,5.71,16.72,8.95c0.32,0.46,1.03,0.3,1.12-0.25l0.6-3.75 c-3.06-4.98-9.15-8.43-17.1-6.42c-3.29,0.83-6.49,2.8-8.61,5.77C70.02,15.46,72.63,14,75.3,13.32z" fill="#DA2E75"/>
        <path d="M105.23,4.62c-2.52,0.64-4.68,1.77-6.19,3.33c1.14-0.8,2.67-1.3,4.21-1.69 c7.73-1.96,15.91,1.96,15.46,16.29c-0.41,13.04-16.4,37.35-16.4,37.35l1.95,0.81c0,0,20.01-23.94,19.74-39.02 C123.72,6.61,113.79,2.45,105.23,4.62z" fill="#DA2E75"/>
      </g>
      <path d="M72.02,19.38c1.74-2.38,4.96-4.42,7.84-2.35c1.56,1.12,1,3.58-0.3,4.66 c-1.9,1.58-3.58,2.55-4.67,4.94c-0.66,1.44-1.03,2.99-1.18,4.57c-0.06,0.62-0.86,0.81-1.19,0.28 C70.28,27.88,69.48,22.85,72.02,19.38z" fill="#F386AB"/>
      <path d="M100.41,17.38c-0.86,0.09-1.56-0.67-1.33-1.51c0.43-1.54,1.02-3.05,1.79-4.42 c1.14-2.02,3.57-3.39,5.3-2.43c1.78,0.99,1.81,3.34,0.77,4.59C104.72,16.29,101.65,17.25,100.41,17.38z" fill="#F386AB"/>
    </g>
    <g>
      <path d="M85.16,59.17C69.82,50.17,55,62.53,55,62.53s3.64-18.93-11.8-27.99 c-11.6-6.81-30.23-5.39-37.61,18.38c-7.38,23.77,13.41,71,13.41,71s51.25-4.92,68.41-22.95C104.57,82.94,97.69,66.53,85.16,59.17z " fill="#EF5592"/>
      <g>
        <path d="M39.91,34.71c12.03,7.07,10.41,23.51,9.26,29.89c-0.16,0.91,0.86,1.55,1.61,1l4.18-3.08 c2.18-9.39-0.11-21.13-11.77-27.98c-4.82-2.83-10.87-4.23-16.81-3.2C31.24,31.09,36,32.41,39.91,34.71z" fill="#DA2E75"/>
        <path d="M85.16,59.17c-3.7-2.17-7.55-3.35-11.13-3.27c2.26,0.37,4.64,1.56,6.91,2.89 c11.34,6.66,16.44,21.22,0.19,38.41c-13.95,14.76-49.09,21.97-60.75,25.75c-0.74,0.24-1.37,0.96-1.37,0.96 s51.25-4.92,68.41-22.95C104.57,82.94,97.71,66.55,85.16,59.17z" fill="#DA2E75"/>
      </g>
      <path d="M24.79,38.65c4.55-1.73,10.82-1.69,12.96,3.76c1.16,2.95-1.81,5.85-4.59,6.18 c-4.05,0.48-7.24,0.34-10.9,2.67c-2.2,1.4-4.1,3.23-5.72,5.28c-0.64,0.81-1.92,0.35-1.9-0.68 C14.77,48.88,18.16,41.18,24.79,38.65z" fill="#F386AB"/>
      <path d="M62.82,70.24c-1.23-0.72-1.4-2.43-0.28-3.3c2.07-1.62,4.35-3.04,6.72-4.1 c3.49-1.56,8.06-0.99,9.42,2c1.39,3.06-0.88,6.21-3.48,6.84C69.6,73.03,64.59,71.28,62.82,70.24z" fill="#F386AB"/>
    </g>
  </g>
</svg>

<svg viewBox="0 0 128 128" xmlns="http://www.w3.org/2000/svg">
  <defs/>
  <path d="M105.23,4.62 C94.79,7.26 93.65,18.91 93.65,18.91 C93.65,18.91 87.16,9.19 76.64,11.86 C68.74,13.86 61.31,22.41 68.24,35.8 C75.17,49.2 104.25,60.72 104.25,60.72 C104.25,60.72 124.27,36.77 124,21.69 C123.72,6.61 113.77,2.46 105.23,4.62 Z" fill="#EF5592"/>
  <path d="M75.3,13.32 C83.5,11.25 89.8,19.03 92.02,22.27 C92.34,22.73 93.05,22.57 93.14,22.02 L93.74,18.27 C90.68,13.29 84.59,9.84 76.64,11.85 C73.35,12.68 70.15,14.65 68.03,17.62 C70.02,15.46 72.63,14 75.3,13.32 Z" fill="#DA2E75"/>
  <path d="M105.23,4.62 C102.71,5.26 100.55,6.39 99.04,7.95 C100.18,7.15 101.71,6.65 103.25,6.26 C110.98,4.3 119.16,8.22 118.71,22.55 C118.3,35.59 102.31,59.9 102.31,59.9 L104.26,60.71 C104.26,60.71 124.27,36.77 124,21.69 C123.72,6.61 113.79,2.45 105.23,4.62 Z" fill="#DA2E75"/>
  <path d="M72.02,19.38 C73.76,17 76.98,14.96 79.86,17.03 C81.42,18.15 80.86,20.61 79.56,21.69 C77.66,23.27 75.98,24.24 74.89,26.63 C74.23,28.07 73.86,29.62 73.71,31.2 C73.65,31.82 72.85,32.01 72.52,31.48 C70.28,27.88 69.48,22.85 72.02,19.38 Z" fill="#F386AB"/>
  <path d="M100.41,17.38 C99.55,17.47 98.85,16.71 99.08,15.87 C99.51,14.33 100.1,12.82 100.87,11.45 C102.01,9.43 104.44,8.06 106.17,9.02 C107.95,10.01 107.98,12.36 106.94,13.61 C104.72,16.29 101.65,17.25 100.41,17.38 Z" fill="#F386AB"/>
  <path d="M85.16,59.17 C69.82,50.17 55,62.53 55,62.53 C55,62.53 58.64,43.6 43.2,34.54 C31.6,27.73 12.97,29.15 5.59,52.92 C-1.79,76.69 19,123.92 19,123.92 C19,123.92 70.25,119 87.41,100.97 C104.57,82.94 97.69,66.53 85.16,59.17 Z" fill="#EF5592"/>
  <path d="M39.91,34.71 C51.94,41.78 50.32,58.22 49.17,64.6 C49.01,65.51 50.03,66.15 50.78,65.6 L54.96,62.52 C57.14,53.13 54.85,41.39 43.19,34.54 C38.37,31.71 32.32,30.31 26.38,31.34 C31.24,31.09 36,32.41 39.91,34.71 Z" fill="#DA2E75"/>
  <path d="M85.16,59.17 C81.46,57 77.61,55.82 74.03,55.9 C76.29,56.27 78.67,57.46 80.94,58.79 C92.28,65.45 97.38,80.01 81.13,97.2 C67.18,111.96 32.04,119.17 20.38,122.95 C19.64,123.19 19.01,123.91 19.01,123.91 C19.01,123.91 70.26,118.99 87.42,100.96 C104.57,82.94 97.71,66.55 85.16,59.17 Z" fill="#DA2E75"/>
  <path d="M24.79,38.65 C29.34,36.92 35.61,36.96 37.75,42.41 C38.91,45.36 35.94,48.26 33.16,48.59 C29.11,49.07 25.92,48.93 22.26,51.26 C20.06,52.66 18.16,54.49 16.54,56.54 C15.9,57.35 14.62,56.89 14.64,55.86 C14.77,48.88 18.16,41.18 24.79,38.65 Z" fill="#F386AB"/>
  <path d="M62.82,70.24 C61.59,69.52 61.42,67.81 62.54,66.94 C64.61,65.32 66.89,63.9 69.26,62.84 C72.75,61.28 77.32,61.85 78.68,64.84 C80.07,67.9 77.8,71.05 75.2,71.68 C69.6,73.03 64.59,71.28 62.82,70.24 Z" fill="#F386AB"/>
</svg>
